assets/svg/f_droid.svg

<svg width="50" height="51" viewBox="0 0 50 51" fill="none" xmlns="http://www.w3.org/2000/svg">
<path fill-rule="evenodd" clip-rule="evenodd" d="M48.611 2.07247L43.9245 8.2158Z" fill="#8AB000"/>
<path d="M48.611 2.07247L43.9245 8.2158" stroke="#769616" stroke-width="2.5" stroke-linecap="round"/>
<path fill-rule="evenodd" clip-rule="evenodd" d="M48.5863 0.67312C49.0864 0.686524 49.4263 0.884237 49.6678 1.1742C47.4327 3.86487 47.0561 4.29237 44.0048 8.12336C42.8806 9.59664 41.7094 8.8352 42.8337 7.36192L47.5202 1.21858C47.7727 0.877238 48.1654 0.684625 48.5863 0.67312Z" fill="white" fill-opacity="0.298039"/>
<path fill-rule="evenodd" clip-rule="evenodd" d="M49.6772 1.18818C49.8138 1.35338 50.296 2.08691 49.702 2.92642L45.0154 9.06975C43.8912 10.543 43.7474 8.38583 43.7474 8.38583C43.7474 8.38583 47.8655 3.34829 49.6772 1.18818Z" fill="#263238" fill-opacity="0.2"/>
<path fill-rule="evenodd" clip-rule="evenodd" d="M48.8879 0.935524C49.3711 0.935524 49.9463 1.09367 49.7968 1.82752C49.6826 2.38779 44.6572 8.61244 44.6572 8.61244C43.5329 10.0857 41.9076 9.3679 43.0318 7.89484L47.7012 1.78198C47.9881 1.45806 48.3722 0.951385 48.8879 0.935524Z" fill="#8AB000"/>
<path fill-rule="evenodd" clip-rule="evenodd" d="M1.39038 2.07247L6.07695 8.2158Z" fill="#8AB000"/>
<path d="M1.39038 2.07247L6.07695 8.2158" stroke="#769616" stroke-width="2.5" stroke-linecap="round"/>
<path fill-rule="evenodd" clip-rule="evenodd" d="M1.41506 0.67312C0.91502 0.686524 0.575122 0.884237 0.333572 1.1742C2.56871 3.86487 2.94526 4.29237 5.99657 8.12336C7.12084 9.59664 8.292 8.8352 7.16774 7.36192L2.48117 1.21858C2.22866 0.877238 1.83599 0.684625 1.41506 0.67312Z" fill="white" fill-opacity="0.298039"/>
<path fill-rule="evenodd" clip-rule="evenodd" d="M0.324223 1.18818C0.187603 1.35338 -0.294598 2.08691 0.299423 2.92642L4.98599 9.06975C6.11025 10.543 6.25398 8.38583 6.25398 8.38583C6.25398 8.38583 2.13592 3.34829 0.324223 1.18818Z" fill="#263238" fill-opacity="0.2"/>
<path fill-rule="evenodd" clip-rule="evenodd" d="M1.11355 0.935524C0.630361 0.935524 0.0550851 1.09367 0.204662 1.82752C0.318861 2.38779 5.34426 8.61244 5.34426 8.61244C6.46852 10.0857 8.09387 9.3679 6.9696 7.89484L2.30027 1.78198C2.01329 1.45806 1.62924 0.951385 1.11355 0.935524Z" fill="#8AB000"/>
<path d="M42.6444 5.98186H7.35727C5.53022 5.98186 4.0491 7.48212 4.0491 9.33277V17.1516C4.0491 19.0022 5.53022 20.5025 7.35727 20.5025H42.6444C44.4714 20.5025 45.9526 19.0022 45.9526 17.1516V9.33277C45.9526 7.48212 44.4714 5.98186 42.6444 5.98186Z" fill="#AEEA00"/>
<path d="M42.6444 9.33277H7.35727C5.53022 9.33277 4.0491 10.833 4.0491 12.6837V17.1516C4.0491 19.0022 5.53022 20.5025 7.35727 20.5025H42.6444C44.4714 20.5025 45.9526 19.0022 45.9526 17.1516V12.6837C45.9526 10.833 44.4714 9.33277 42.6444 9.33277Z" fill="#263238" fill-opacity="0.2"/>
<path d="M42.6444 5.98186H7.35727C5.53022 5.98186 4.0491 7.48212 4.0491 9.33277V13.8006C4.0491 15.6513 5.53022 17.1516 7.35727 17.1516H42.6444C44.4714 17.1516 45.9526 15.6513 45.9526 13.8006V9.33277C45.9526 7.48212 44.4714 5.98186 42.6444 5.98186Z" fill="white" fill-opacity="0.298039"/>
<path d="M42.6444 7.09883H7.35727C5.53022 7.09883 4.0491 8.36827 4.0491 9.93421V16.5501C4.0491 18.1161 5.53022 19.3855 7.35727 19.3855H42.6444C44.4714 19.3855 45.9526 18.1161 45.9526 16.5501V9.93421C45.9526 8.36827 44.4714 7.09883 42.6444 7.09883Z" fill="#AEEA00"/>
<path d="M42.6444 21.6194H7.35727C5.53022 21.6194 4.0491 23.1197 4.0491 24.9703V47.3097C4.0491 49.1604 5.53022 50.6606 7.35727 50.6606H42.6444C44.4714 50.6606 45.9526 49.1604 45.9526 47.3097V24.9703C45.9526 23.1197 44.4714 21.6194 42.6444 21.6194Z" fill="#1976D2"/>
<path d="M42.6444 36.14H7.35727C5.53022 36.14 4.0491 37.6403 4.0491 39.491V47.3097C4.0491 49.1604 5.53022 50.6606 7.35727 50.6606H42.6444C44.4714 50.6606 45.9526 49.1604 45.9526 47.3097V39.491C45.9526 37.6403 44.4714 36.14 42.6444 36.14Z" fill="#263238" fill-opacity="0.2"/>
<path d="M42.6444 21.6194H7.35727C5.53022 21.6194 4.0491 23.1197 4.0491 24.9703V32.7891C4.0491 34.6398 5.53022 36.14 7.35727 36.14H42.6444C44.4714 36.14 45.9526 34.6398 45.9526 32.7891V24.9703C45.9526 23.1197 44.4714 21.6194 42.6444 21.6194Z" fill="white" fill-opacity="0.2"/>
<path d="M42.6444 22.7364H7.35727C5.53022 22.7364 4.0491 24.1213 4.0491 25.8296V46.4506C4.0491 48.1589 5.53022 49.5437 7.35727 49.5437H42.6444C44.4714 49.5437 45.9526 48.1589 45.9526 46.4506V25.8296C45.9526 24.1213 44.4714 22.7364 42.6444 22.7364Z" fill="#1976D2"/>
<path d="M25.0008 29.1589C21.8243 29.1589 19.1346 31.3758 18.3479 34.3533H21.8908C22.5021 33.2527 23.6498 32.5098 25.0008 32.5098C26.9997 32.5098 28.5847 34.1153 28.5847 36.14C28.5847 38.1647 26.9997 39.7701 25.0008 39.7701C23.5592 39.7701 22.3419 38.9294 21.7702 37.7042H18.2919C19.0001 40.7934 21.7455 43.121 25.0008 43.121C28.7876 43.121 31.8928 39.9757 31.8928 36.14C31.8928 32.3043 28.7876 29.1589 25.0008 29.1589Z" fill="#0D47A1"/>
<path d="M25.0008 46.807C30.8169 46.807 35.5318 42.0312 35.5318 36.14C35.5318 30.2487 30.8169 25.4729 25.0008 25.4729C19.1847 25.4729 14.4698 30.2487 14.4698 36.14C14.4698 42.0312 19.1847 46.807 25.0008 46.807Z" stroke="#0D47A1" stroke-width="1.9" stroke-linecap="round"/>
<path d="M14.3871 17.71C16.4426 17.71 18.1088 15.7722 18.1088 13.3818C18.1088 10.9914 16.4426 9.05353 14.3871 9.05353C12.3317 9.05353 10.6654 10.9914 10.6654 13.3818C10.6654 15.7722 12.3317 17.71 14.3871 17.71Z" fill="#263238" fill-opacity="0.2"/>
<path d="M14.3871 17.71C16.4426 17.71 18.1088 16.0223 18.1088 13.9403C18.1088 11.8583 16.4426 10.1705 14.3871 10.1705C12.3317 10.1705 10.6654 11.8583 10.6654 13.9403C10.6654 16.0223 12.3317 17.71 14.3871 17.71Z" fill="white"/>
<path d="M35.8902 17.71C37.9456 17.71 39.6119 15.7722 39.6119 13.3818C39.6119 10.9914 37.9456 9.05353 35.8902 9.05353C33.8348 9.05353 32.1685 10.9914 32.1685 13.3818C32.1685 15.7722 33.8348 17.71 35.8902 17.71Z" fill="#263238" fill-opacity="0.2"/>
<path d="M35.8902 17.71C37.9456 17.71 39.6119 16.0223 39.6119 13.9403C39.6119 11.8583 37.9456 10.1705 35.8902 10.1705C33.8348 10.1705 32.1685 11.8583 32.1685 13.9403C32.1685 16.0223 33.8348 17.71 35.8902 17.71Z" fill="white"/>
<path fill-rule="evenodd" clip-rule="evenodd" d="M1.41741 0.661177C1.15476 0.653832 0.895509 0.722649 0.670193 0.859564C0.444878 0.996479 0.262884 1.19582 0.14565 1.434C0.0284161 1.67219 -0.0191749 1.9393 0.00848376 2.20396C0.0361424 2.46863 0.137898 2.71979 0.301765 2.92784L4.27544 8.13752C4.1354 8.50959 4.05145 8.90992 4.05145 9.33303V13.8009V17.0012V17.1518C4.05145 19.0082 5.52689 20.5027 7.35962 20.5027H42.6467C44.4795 20.5027 45.9549 19.0082 45.9549 17.1518V12.6839V9.48356V9.33303C45.9549 8.90825 45.8699 8.50645 45.7288 8.13316L49.7003 2.92784C49.8662 2.71703 49.9683 2.4621 49.9942 2.19381C50.0202 1.92551 49.969 1.65531 49.8467 1.41587C49.7244 1.17643 49.5363 0.977953 49.3051 0.84443C49.0739 0.710906 48.8094 0.648062 48.5437 0.663426C48.3431 0.674879 48.1475 0.73062 47.9704 0.826704C47.7933 0.922789 47.6391 1.05688 47.5185 1.21966L43.7344 6.18058C43.3923 6.06006 43.0304 5.98212 42.6467 5.98212H7.35962C6.97524 5.98212 6.61244 6.05916 6.26982 6.18058L2.48351 1.21966C2.35887 1.05119 2.19823 0.913464 2.01362 0.816751C1.829 0.720038 1.62518 0.666837 1.41741 0.661177ZM7.35962 21.6197C7.13053 21.6197 6.90769 21.6431 6.69195 21.6877C5.18176 21.9961 4.05145 23.3295 4.05145 24.9383V24.9707V47.0636V47.0959V47.3097C4.05145 49.1661 5.52689 50.6606 7.35962 50.6606H42.6467C44.4795 50.6606 45.9549 49.1661 45.9549 47.3097V24.9703V24.938C45.9549 23.3292 44.8246 21.9959 43.3144 21.6875C43.0986 21.6439 42.8758 21.6193 42.6467 21.6193L7.35962 21.6197Z" fill="url(#paint0_radial_289_113)"/>
<defs>
<radialGradient id="paint0_radial_289_113" cx="0" cy="0" r="1" gradientUnits="userSpaceOnUse" gradientTransform="translate(0.0036003 0.662144) rotate(90) scale(50.0069 52.9307)">
<stop stop-color="white" stop-opacity="0.0980392"/>
<stop offset="1" stop-color="white" stop-opacity="0"/>
</radialGradient>
</defs>
</svg>

<svg xmlns="http://www.w3.org/2000/svg" width="50" height="51" fill="none" viewBox="0 0 50 51"><path fill="#8ab000" fill-rule="evenodd" d="m48.611 2.072-4.686 6.144Z" clip-rule="evenodd"/><path stroke="#769616" stroke-linecap="round" stroke-width="2.5" d="m48.611 2.072-4.686 6.144"/><path fill="#fff" fill-opacity=".298" fill-rule="evenodd" d="M48.586.673c.5.014.84.211 1.082.501-2.235 2.69-2.612 3.118-5.663 6.95-1.124 1.473-2.296.711-1.171-.762l4.686-6.143a1.36 1.36 0 0 1 1.066-.546" clip-rule="evenodd"/><path fill="#263238" fill-opacity=".2" fill-rule="evenodd" d="M49.677 1.188c.137.165.619.899.025 1.738L45.015 9.07c-1.124 1.473-1.268-.684-1.268-.684s4.118-5.038 5.93-7.198" clip-rule="evenodd"/><path fill="#8ab000" fill-rule="evenodd" d="M48.888.936c.483 0 1.058.158.909.892-.114.56-5.14 6.784-5.14 6.784-1.124 1.474-2.75.756-1.625-.717l4.67-6.113c.286-.324.67-.83 1.186-.846M1.39 2.072l4.687 6.144Z" clip-rule="evenodd"/><path stroke="#769616" stroke-linecap="round" stroke-width="2.5" d="m1.39 2.072 4.687 6.144"/><path fill="#fff" fill-opacity=".298" fill-rule="evenodd" d="M1.415.673c-.5.014-.84.211-1.081.501 2.235 2.69 2.611 3.118 5.663 6.95 1.124 1.473 2.295.711 1.17-.762L2.482 1.219A1.36 1.36 0 0 0 1.415.673" clip-rule="evenodd"/><path fill="#263238" fill-opacity=".2" fill-rule="evenodd" d="M.324 1.188A1.41 1.41 0 0 0 .3 2.926L4.986 9.07c1.124 1.473 1.268-.684 1.268-.684S2.136 3.348.324 1.188" clip-rule="evenodd"/><path fill="#8ab000" fill-rule="evenodd" d="M1.114.936c-.484 0-1.059.158-.91.892.115.56 5.14 6.784 5.14 6.784 1.125 1.474 2.75.756 1.626-.717L2.3 1.782c-.287-.324-.67-.83-1.186-.846" clip-rule="evenodd"/><path fill="#aeea00" d="M42.644 5.982H7.357c-1.827 0-3.308 1.5-3.308 3.35v7.82c0 1.85 1.481 3.35 3.308 3.35h35.287c1.827 0 3.309-1.5 3.309-3.35v-7.82c0-1.85-1.482-3.35-3.309-3.35"/><path fill="#263238" fill-opacity=".2" d="M42.644 9.333H7.357c-1.827 0-3.308 1.5-3.308 3.35v4.469c0 1.85 1.481 3.35 3.308 3.35h35.287c1.827 0 3.309-1.5 3.309-3.35v-4.468c0-1.851-1.482-3.351-3.309-3.351"/><path fill="#fff" fill-opacity=".298" d="M42.644 5.982H7.357c-1.827 0-3.308 1.5-3.308 3.35v4.469c0 1.85 1.481 3.35 3.308 3.35h35.287c1.827 0 3.309-1.5 3.309-3.35V9.333c0-1.85-1.482-3.351-3.309-3.351"/><path fill="#aeea00" d="M42.644 7.099H7.357c-1.827 0-3.308 1.27-3.308 2.835v6.616c0 1.566 1.481 2.835 3.308 2.835h35.287c1.827 0 3.309-1.269 3.309-2.835V9.934c0-1.566-1.482-2.835-3.309-2.835"/><path fill="#1976d2" d="M42.644 21.62H7.357c-1.827 0-3.308 1.5-3.308 3.35v22.34c0 1.85 1.481 3.35 3.308 3.35h35.287c1.827 0 3.309-1.5 3.309-3.35V24.97c0-1.85-1.482-3.35-3.309-3.35"/><path fill="#263238" fill-opacity=".2" d="M42.644 36.14H7.357c-1.827 0-3.308 1.5-3.308 3.351v7.819c0 1.85 1.481 3.35 3.308 3.35h35.287c1.827 0 3.309-1.5 3.309-3.35V39.49c0-1.85-1.482-3.351-3.309-3.351"/><path fill="#fff" fill-opacity=".2" d="M42.644 21.62H7.357c-1.827 0-3.308 1.5-3.308 3.35v7.82c0 1.85 1.481 3.35 3.308 3.35h35.287c1.827 0 3.309-1.5 3.309-3.35v-7.82c0-1.85-1.482-3.35-3.309-3.35"/><path fill="#1976d2" d="M42.644 22.736H7.357c-1.827 0-3.308 1.385-3.308 3.094v20.62c0 1.709 1.481 3.094 3.308 3.094h35.287c1.827 0 3.309-1.385 3.309-3.093V25.83c0-1.709-1.482-3.094-3.309-3.094"/><path fill="#0d47a1" d="M25 29.159c-3.176 0-5.865 2.217-6.652 5.194h3.543A3.54 3.54 0 0 1 25 32.51c1.999 0 3.584 1.605 3.584 3.63S27 39.77 25 39.77a3.55 3.55 0 0 1-3.23-2.066h-3.48c.71 3.09 3.454 5.417 6.71 5.417 3.787 0 6.892-3.145 6.892-6.981S28.788 29.159 25 29.159"/><path stroke="#0d47a1" stroke-linecap="round" stroke-width="1.9" d="M25 46.807c5.817 0 10.532-4.776 10.532-10.667S30.817 25.473 25 25.473 14.47 30.249 14.47 36.14 19.185 46.807 25 46.807Z"/><path fill="#263238" fill-opacity=".2" d="M14.387 17.71c2.056 0 3.722-1.938 3.722-4.328s-1.666-4.328-3.722-4.328-3.722 1.937-3.722 4.328 1.667 4.328 3.722 4.328"/><path fill="#fff" d="M14.387 17.71c2.056 0 3.722-1.688 3.722-3.77s-1.666-3.77-3.722-3.77-3.722 1.688-3.722 3.77 1.667 3.77 3.722 3.77"/><path fill="#263238" fill-opacity=".2" d="M35.89 17.71c2.056 0 3.722-1.938 3.722-4.328s-1.666-4.328-3.722-4.328-3.721 1.937-3.721 4.328 1.666 4.328 3.721 4.328"/><path fill="#fff" d="M35.89 17.71c2.056 0 3.722-1.688 3.722-3.77s-1.666-3.77-3.722-3.77-3.721 1.688-3.721 3.77 1.666 3.77 3.721 3.77"/><path fill="url(#a)" fill-rule="evenodd" d="M1.417.661A1.37 1.37 0 0 0 .67.86a1.4 1.4 0 0 0-.524.574 1.41 1.41 0 0 0 .156 1.494l3.973 5.21a3.4 3.4 0 0 0-.224 1.195v7.818c0 1.857 1.476 3.352 3.309 3.352h35.287c1.833 0 3.308-1.495 3.308-3.351V9.333a3.4 3.4 0 0 0-.226-1.2L49.7 2.928a1.4 1.4 0 0 0 .147-1.512 1.4 1.4 0 0 0-.542-.572 1.365 1.365 0 0 0-1.786.376l-3.785 4.96a3.3 3.3 0 0 0-1.087-.198H7.36c-.385 0-.748.077-1.09.199L2.484 1.22A1.38 1.38 0 0 0 1.417.66M7.36 21.62q-.345 0-.668.068a3.31 3.31 0 0 0-2.64 3.25V47.31c0 1.856 1.475 3.35 3.308 3.35h35.287c1.833 0 3.308-1.494 3.308-3.35V24.938a3.31 3.31 0 0 0-3.308-3.319z" clip-rule="evenodd"/><defs><radialGradient id="a" cx="0" cy="0" r="1" gradientTransform="matrix(0 50.0069 -52.9307 0 .004 .662)" gradientUnits="userSpaceOnUse"><stop stop-color="#fff" stop-opacity=".098"/><stop offset="1" stop-color="#fff" stop-opacity="0"/></radialGradient></defs></svg>
